X:1
T:Bride's Favourite, The
R:jig
S:Mary Bergin
Z:id:hn-jig-1
M:6/8
K:G
~G3 ~B3|GBd gdB|AFD cBA|GBd gdB|~G3 ~B3|GBd gdB|AFD cBA|1 AGF G2D:|2 AGF GBd||
|:g2a f2a|gdB GBd|~g3 fed|egf e2f|~g3 gaf|gdB GBd|AFD cBA|1 AGF GBd:|2 AGF G2D||
|:GBd ~g3|edc BcA|GBd g2g|gaf g2a|~b3 afa|~g3 fdf|ed^c def|gaf gdB:|

